dest/img/logo.svg

<svg fill="none" height="50" viewBox="0 0 150 50" width="150" xmlns="http://www.w3.org/2000/svg"><g fill="#21bf73"><path d="m0 39.6123 1.51268-2.9043c1.59961.9419 3.09491 1.4129 4.48587 1.4129 1.18233 0 1.77349-.3227 1.77349-.9681 0-.5408-.74765-.9856-2.24294-1.3345-1.70393-.4012-2.94711-.9507-3.72953-1.6484s-1.173634-1.6135-1.173634-2.7474c0-1.221.452064-2.1891 1.356194-2.9043.92152-.7327 2.21686-1.099 3.88602-1.099 2.05168 0 3.94688.5408 5.68555 1.6223l-1.5126 2.7997c-.50427-.3489-1.1302-.6367-1.87785-.8635-.74764-.2268-1.43444-.3401-2.06037-.3401-1.02584 0-1.53876.2791-1.53876.8373 0 .2965.15648.5407.46945.7326.33036.1919.9389.3925 1.82565.6018 3.30358.7501 4.95528 2.1892 4.95528 4.3173 0 1.3083-.5216 2.3549-1.5648 3.1398-1.04322.7676-2.44288 1.1513-4.19898 1.1513-2.17339 0-4.1903-.6018-6.05072-1.8054z"/><path d="m12.631 31.03v-3.3753h2.2168l.0783-3.2445h4.0947v3.2445h3.3383v3.3753h-3.3383v4.7622c0 1.1687.5042 1.753 1.5126 1.753.4869 0 1.0259-.1221 1.617-.3663l.9129 3.5062c-1.0433.471-2.156.7065-3.3384.7065-1.6344 0-2.8688-.4361-3.7034-1.3083-.8346-.8896-1.2519-2.1805-1.2519-3.8725v-5.1808z"/><path d="m25.7402 33.8036c1.0432-.8024 2.4777-1.2036 4.3033-1.2036 1.0432 0 2.0952.1395 3.1558.4186v-.3401c0-.7152-.2348-1.2385-.7042-1.57-.4521-.3314-1.1823-.4971-2.1908-.4971-1.2345 0-2.6428.3401-4.2251 1.0204l-1.0171-2.9566c1.9126-.8722 3.8512-1.3083 5.816-1.3083 1.9995 0 3.5383.471 4.6163 1.4129 1.078.942 1.617 2.2677 1.617 3.9772v8.3991h-3.6774l-.0782-1.6484c-1.2171 1.221-2.7472 1.8315-4.5902 1.8315-1.391 0-2.5125-.3837-3.3645-1.1512-.8345-.785-1.2518-1.8055-1.2518-3.0614 0-1.4129.5303-2.5206 1.5909-3.323zm2.5037 3.1137c0 .9768.6086 1.4652 1.8257 1.4652.8693 0 1.5996-.2442 2.1908-.7326.5911-.5059.9215-1.1338.991-1.8839-1.0258-.2966-1.9126-.4448-2.6602-.4448-1.5648 0-2.3473.532-2.3473 1.5961z"/><path d="m38.7117 31.03v-3.3753h2.2168l.0783-3.2445h4.0946v3.2445h3.3384v3.3753h-3.3384v4.7622c0 1.1687.5043 1.753 1.5127 1.753.4868 0 1.0258-.1221 1.617-.3663l.9128 3.5062c-1.0432.471-2.156.7065-3.3383.7065-1.6344 0-2.8689-.4361-3.7034-1.3083-.8346-.8896-1.2519-2.1805-1.2519-3.8725v-5.1808z"/><path d="m51.0596 27.6547h4.2512v7.3002c0 1.7618.7476 2.6427 2.2429 2.6427.8346 0 1.4779-.2617 1.93-.785.4694-.5233.7042-1.2298.7042-2.1194v-7.0385h4.2511v13.5014h-3.886l-.0522-1.8316c-1.1823 1.3606-2.6602 2.0409-4.4337 2.0409-1.53 0-2.7471-.4884-3.6513-1.4653-.9041-.9768-1.3562-2.2502-1.3562-3.8201z"/><path d="m66.7299 39.6123 1.5126-2.9043c1.5996.9419 3.0949 1.4129 4.4859 1.4129 1.1823 0 1.7735-.3227 1.7735-.9681 0-.5408-.7477-.9856-2.243-1.3345-1.7039-.4012-2.9471-.9507-3.7295-1.6484s-1.1736-1.6135-1.1736-2.7474c0-1.221.4521-2.1891 1.3562-2.9043.9215-.7327 2.2168-1.099 3.886-1.099 2.0517 0 3.9469.5408 5.6856 1.6223l-1.5127 2.7997c-.5042-.3489-1.1302-.6367-1.8778-.8635s-1.4344-.3401-2.0604-.3401c-1.0258 0-1.5387.2791-1.5387.8373 0 .2965.1564.5407.4694.7326.3304.1919.9389.3925 1.8257.6018 3.3035.7501 4.9553 2.1892 4.9553 4.3173 0 1.3083-.5216 2.3549-1.5648 3.1398-1.0433.7676-2.4429 1.1513-4.199 1.1513-2.1734 0-4.1903-.6018-6.0507-1.8054z"/><path d="m79.7926 45.4995c0-1.1164.3912-2.0496 1.1736-2.7997-.5738-.5756-.8606-1.2995-.8606-2.1717 0-1.3257.6085-2.4072 1.8256-3.2445-.7998-.9943-1.1997-2.2066-1.1997-3.637 0-1.8316.5999-3.2881 1.7996-4.3696s2.8254-1.6223 4.8771-1.6223h8.0589v3.2445h-2.4516c.7129.8199 1.0693 1.8403 1.0693 3.0614 0 1.6746-.6085 3.0177-1.8256 4.0295-1.2171 1.0117-2.8341 1.5176-4.851 1.5176-1.0607 0-2.0169-.1483-2.8689-.4449-.3999.2443-.5999.5495-.5999.9158 0 .4187.2869.7152.8607.8897.5912.1569 1.7387.2703 3.4426.3401 2.469.0872 4.286.4623 5.4509 1.1251 1.1649.6803 1.7474 1.6833 1.7474 3.009 0 1.4653-.6694 2.6079-2.0082 3.4277-1.3388.8199-3.1905 1.2298-5.5552 1.2298-2.6428 0-4.651-.3838-6.0246-1.1513s-2.0604-1.8839-2.0604-3.3492zm4.9032-11.8529c0 .785.2521 1.4304.7563 1.9362.5042.5059 1.1476.7588 1.93.7588.7998 0 1.4518-.2529 1.956-.7588.5043-.5058.7564-1.1512.7564-1.9362 0-.7675-.2521-1.4042-.7564-1.9101-.5042-.5059-1.1562-.7588-1.956-.7588-.7824 0-1.4258.2529-1.93.7588s-.7563 1.1426-.7563 1.9101zm-1.3041 11.4605c0 1.0989 1.4171 1.6484 4.2512 1.6484 2.5907 0 3.886-.4012 3.886-1.2036 0-.3663-.2695-.6367-.8085-.8112-.539-.1744-1.4605-.2703-2.7646-.2878-1.6865-.0523-3.0514-.1919-4.0946-.4186-.313.3488-.4695.7064-.4695 1.0728z"/><path d="m97.7167 33.8036c1.0433-.8024 2.4773-1.2036 4.3033-1.2036 1.043 0 2.095.1395 3.156.4186v-.3401c0-.7152-.235-1.2385-.704-1.57-.452-.3314-1.183-.4971-2.191-.4971-1.235 0-2.643.3401-4.2252 1.0204l-1.0171-2.9566c1.9125-.8722 3.8513-1.3083 5.8163-1.3083 1.999 0 3.538.471 4.616 1.4129 1.078.942 1.617 2.2677 1.617 3.9772v8.3991h-3.677l-.079-1.6484c-1.217 1.221-2.747 1.8315-4.59 1.8315-1.3909 0-2.5123-.3837-3.3643-1.1512-.8346-.785-1.2519-1.8055-1.2519-3.0614 0-1.4129.5303-2.5206 1.5909-3.323zm2.5033 3.1137c0 .9768.609 1.4652 1.826 1.4652.869 0 1.6-.2442 2.191-.7326.591-.5059.921-1.1338.991-1.8839-1.026-.2966-1.913-.4448-2.66-.4448-1.565 0-2.348.532-2.348 1.5961z"/><path d="m110.688 31.03v-3.3753h2.217l.078-3.2445h4.095v3.2445h3.338v3.3753h-3.338v4.7622c0 1.1687.504 1.753 1.513 1.753.486 0 1.025-.1221 1.617-.3663l.912 3.5062c-1.043.471-2.156.7065-3.338.7065-1.634 0-2.869-.4361-3.703-1.3083-.835-.8896-1.252-2.1805-1.252-3.8725v-5.1808z"/><path d="m124.039 29.277c1.373-1.3083 3.182-1.9625 5.425-1.9625 2.225 0 4.025.6542 5.398 1.9625 1.391 1.3082 2.087 3.0177 2.087 5.1284s-.696 3.8201-2.087 5.1284c-1.373 1.3083-3.173 1.9624-5.398 1.9624-2.243 0-4.06-.6541-5.451-1.9624-1.374-1.3083-2.061-3.0177-2.061-5.1284s.696-3.8202 2.087-5.1284zm3.025 7.6141c.609.628 1.409.942 2.4.942.973 0 1.764-.314 2.373-.942s.913-1.4565.913-2.4857c0-1.0117-.304-1.8316-.913-2.4596-.609-.6454-1.4-.9681-2.373-.9681-.974 0-1.774.3227-2.4.9681-.608.628-.913 1.4479-.913 2.4596 0 1.0292.305 1.8577.913 2.4857z"/><path d="m143.38 27.6547.052 1.8316c1.026-1.3432 2.399-2.0148 4.121-2.0148.66 0 1.295.1047 1.904.314l-.939 3.951c-.574-.1744-1.131-.2616-1.67-.2616-2.069 0-3.103 1.2646-3.103 3.7939v5.8873h-4.251v-13.5014z"/><path clip-rule="evenodd" d="m67.7298 1.98582c-.9181-.86299-1.7864-1.679051-3.3421-1.9254837-1.9058-.3019073-3.22.5825157-4.5342 1.4669337-.7201.4846-1.4402.9692-2.2576 1.25863-1.2279.43477-2.3237.77078-3.3394 1.08218-3.4816 1.06746-6.0203 1.84586-9.7009 5.32291-3.9525 3.73391-6.0578 8.75721-6.947 11.35911-.2273.6651.4654 1.2427 1.1162.9821 1.08-.4326 2.5023-.8938 3.6574-.8938 1.1824 0 2.7592 1.1835 4.1742 2.2455 1.1859.8901 2.2581 1.6949 2.8893 1.6462.5481-.0423 1.1617-.2422 1.7961-.4488 1.4092-.4591 2.9208-.9515 4.0449.1763.6526.5179.9317 1.4766 1.1858 2.3499.2859.9821.5403 1.8562 1.2592 1.8747.7655 0 .9254-.6865 1.1218-1.5299.2219-.9526.4904-2.1053 1.7308-2.6947 1.4763-.7016 2.2415-.2885 3.1345.1937.6682.3608 1.4079.7602 2.5707.7602 1.9892 0 2.7745-.5116 3.5326-1.0054.743-.4841 1.46-.9511 3.2592-.9025 1.9663.0531 3.0211.7875 4.043 1.4989.9945.6923 1.9578 1.363 3.6997 1.363 1.496.0155 2.5296-.7291 3.6159-1.5116 1.1823-.8518 2.4271-1.7485 4.3985-1.7591 2.5532-.0138 3.563.3795 5.0898.9742.7059.275 1.5223.593 2.6529.9337.8398.2531 1.5642.0008 2.4499-.3077.8531-.2971 1.856-.6463 3.255-.6463 1.875 0 2.229-.6309 2.672-1.4227.231-.4127.487-.8693.996-1.3029 3.48-2.9671 4.95-10.3731 5.14-11.40356.015-.082.04-.15553.076-.23074.357-.74867 2.276-5.07495-.326-6.56662-2.667-1.44907-4.375.29636-5.99 1.9466-.359.36732-.714.72992-1.074 1.05153-.824.73662-6.5023 1.06647-6.9048 1.08898-.004.00023-.007.00042-.0096.00058-.0076.00049-.0106.00068-.0229.00059-.519-.00389-20.9865-.17774-27.0215-3.40689-.8595-.4599-1.4863-1.04902-2.0914-1.61775zm-5.8259 2.26286c.9339-.02675 2.5034.01148 3.5232.48085 1.3333.61363 2.5286 2.33298 3.134 3.32533.206.33768-.0287.74687-.4233.73959-1.1249-.02076-3.1128-.17252-4.2849-.93285-.9931-.64421-1.884-2.03883-2.3602-2.8816-.1863-.32967.0336-.72051.4112-.73132z" fill-rule="evenodd"/></g></svg>

<svg width="150" height="50" viewBox="0 0 150 50" fill="none" xmlns="http://www.w3.org/2000/svg">
<path d="M0 39.6123L1.51268 36.708C3.11229 37.6499 4.60759 38.1209 5.99855 38.1209C7.18088 38.1209 7.77204 37.7982 7.77204 37.1528C7.77204 36.612 7.02439 36.1672 5.5291 35.8183C3.82517 35.4171 2.58199 34.8676 1.79957 34.1699C1.01715 33.4722 0.625936 32.5564 0.625936 31.4225C0.625936 30.2015 1.078 29.2334 1.98213 28.5182C2.90365 27.7855 4.19899 27.4192 5.86815 27.4192C7.91983 27.4192 9.81503 27.96 11.5537 29.0415L10.0411 31.8412C9.53683 31.4923 8.9109 31.2045 8.16325 30.9777C7.41561 30.7509 6.72881 30.6376 6.10288 30.6376C5.07704 30.6376 4.56412 30.9167 4.56412 31.4749C4.56412 31.7714 4.7206 32.0156 5.03357 32.2075C5.36393 32.3994 5.97247 32.6 6.85922 32.8093C10.1628 33.5594 11.8145 34.9985 11.8145 37.1266C11.8145 38.4349 11.2929 39.4815 10.2497 40.2664C9.20648 41.034 7.80682 41.4177 6.05072 41.4177C3.87733 41.4177 1.86042 40.8159 0 39.6123Z" fill="#21BF73"/>
<path d="M12.631 31.03V27.6547H14.8478L14.9261 24.4102H19.0208V27.6547H22.3591V31.03H19.0208V35.7922C19.0208 36.9609 19.525 37.5452 20.5334 37.5452C21.0203 37.5452 21.5593 37.4231 22.1504 37.1789L23.0633 40.6851C22.02 41.1561 20.9073 41.3916 19.7249 41.3916C18.0905 41.3916 16.8561 40.9555 16.0215 40.0833C15.1869 39.1937 14.7696 37.9028 14.7696 36.2108V31.03H12.631Z" fill="#21BF73"/>
<path d="M25.7402 33.8036C26.7834 33.0012 28.2179 32.6 30.0435 32.6C31.0867 32.6 32.1387 32.7395 33.1993 33.0186V32.6785C33.1993 31.9633 32.9645 31.44 32.4951 31.1085C32.043 30.7771 31.3128 30.6114 30.3043 30.6114C29.0698 30.6114 27.6615 30.9515 26.0792 31.6318L25.0621 28.6752C26.9747 27.803 28.9133 27.3669 30.8781 27.3669C32.8776 27.3669 34.4164 27.8379 35.4944 28.7798C36.5724 29.7218 37.1114 31.0475 37.1114 32.757V41.1561H33.434L33.3558 39.5077C32.1387 40.7287 30.6086 41.3392 28.7656 41.3392C27.3746 41.3392 26.2531 40.9555 25.4011 40.188C24.5666 39.403 24.1493 38.3825 24.1493 37.1266C24.1493 35.7137 24.6796 34.606 25.7402 33.8036ZM28.2439 36.9173C28.2439 37.8941 28.8525 38.3825 30.0696 38.3825C30.9389 38.3825 31.6692 38.1383 32.2604 37.6499C32.8515 37.144 33.1819 36.5161 33.2514 35.766C32.2256 35.4694 31.3388 35.3212 30.5912 35.3212C29.0264 35.3212 28.2439 35.8532 28.2439 36.9173Z" fill="#21BF73"/>
<path d="M38.7117 31.03V27.6547H40.9285L41.0068 24.4102H45.1014V27.6547H48.4398V31.03H45.1014V35.7922C45.1014 36.9609 45.6057 37.5452 46.6141 37.5452C47.1009 37.5452 47.6399 37.4231 48.2311 37.1789L49.1439 40.6851C48.1007 41.1561 46.9879 41.3916 45.8056 41.3916C44.1712 41.3916 42.9367 40.9555 42.1022 40.0833C41.2676 39.1937 40.8503 37.9028 40.8503 36.2108V31.03H38.7117Z" fill="#21BF73"/>
<path d="M51.0596 27.6547H55.3108V34.9549C55.3108 36.7167 56.0584 37.5976 57.5537 37.5976C58.3883 37.5976 59.0316 37.3359 59.4837 36.8126C59.9531 36.2893 60.1879 35.5828 60.1879 34.6932V27.6547H64.439V41.1561H60.553L60.5008 39.3245C59.3185 40.6851 57.8406 41.3654 56.0671 41.3654C54.5371 41.3654 53.32 40.877 52.4158 39.9001C51.5117 38.9233 51.0596 37.6499 51.0596 36.08V27.6547Z" fill="#21BF73"/>
<path d="M66.7299 39.6123L68.2425 36.708C69.8421 37.6499 71.3374 38.1209 72.7284 38.1209C73.9107 38.1209 74.5019 37.7982 74.5019 37.1528C74.5019 36.612 73.7542 36.1672 72.2589 35.8183C70.555 35.4171 69.3118 34.8676 68.5294 34.1699C67.747 33.4722 67.3558 32.5564 67.3558 31.4225C67.3558 30.2015 67.8079 29.2334 68.712 28.5182C69.6335 27.7855 70.9288 27.4192 72.598 27.4192C74.6497 27.4192 76.5449 27.96 78.2836 29.0415L76.7709 31.8412C76.2667 31.4923 75.6407 31.2045 74.8931 30.9777C74.1455 30.7509 73.4587 30.6376 72.8327 30.6376C71.8069 30.6376 71.294 30.9167 71.294 31.4749C71.294 31.7714 71.4504 32.0156 71.7634 32.2075C72.0938 32.3994 72.7023 32.6 73.5891 32.8093C76.8926 33.5594 78.5444 34.9985 78.5444 37.1266C78.5444 38.4349 78.0228 39.4815 76.9796 40.2664C75.9363 41.034 74.5367 41.4177 72.7806 41.4177C70.6072 41.4177 68.5903 40.8159 66.7299 39.6123Z" fill="#21BF73"/>
<path d="M79.7926 45.4995C79.7926 44.3831 80.1838 43.4499 80.9662 42.6998C80.3924 42.1242 80.1056 41.4003 80.1056 40.5281C80.1056 39.2024 80.7141 38.1209 81.9312 37.2836C81.1314 36.2893 80.7315 35.077 80.7315 33.6466C80.7315 31.815 81.3314 30.3585 82.5311 29.277C83.7308 28.1955 85.3565 27.6547 87.4082 27.6547H95.4671V30.8992H93.0155C93.7284 31.7191 94.0848 32.7395 94.0848 33.9606C94.0848 35.6352 93.4763 36.9783 92.2592 37.9901C91.0421 39.0018 89.4251 39.5077 87.4082 39.5077C86.3475 39.5077 85.3913 39.3594 84.5393 39.0628C84.1394 39.3071 83.9394 39.6123 83.9394 39.9786C83.9394 40.3973 84.2263 40.6938 84.8001 40.8683C85.3913 41.0252 86.5388 41.1386 88.2427 41.2084C90.7117 41.2956 92.5287 41.6707 93.6936 42.3335C94.8585 43.0138 95.441 44.0168 95.441 45.3425C95.441 46.8078 94.7716 47.9504 93.4328 48.7702C92.094 49.5901 90.2423 50 87.8776 50C85.2348 50 83.2266 49.6162 81.853 48.8487C80.4794 48.0812 79.7926 46.9648 79.7926 45.4995ZM84.6958 33.6466C84.6958 34.4316 84.9479 35.077 85.4521 35.5828C85.9563 36.0887 86.5997 36.3416 87.3821 36.3416C88.1819 36.3416 88.8339 36.0887 89.3381 35.5828C89.8424 35.077 90.0945 34.4316 90.0945 33.6466C90.0945 32.8791 89.8424 32.2424 89.3381 31.7365C88.8339 31.2306 88.1819 30.9777 87.3821 30.9777C86.5997 30.9777 85.9563 31.2306 85.4521 31.7365C84.9479 32.2424 84.6958 32.8791 84.6958 33.6466ZM83.3917 45.1071C83.3917 46.206 84.8088 46.7555 87.6429 46.7555C90.2336 46.7555 91.5289 46.3543 91.5289 45.5519C91.5289 45.1856 91.2594 44.9152 90.7204 44.7407C90.1814 44.5663 89.2599 44.4704 87.9558 44.4529C86.2693 44.4006 84.9044 44.261 83.8612 44.0343C83.5482 44.3831 83.3917 44.7407 83.3917 45.1071Z" fill="#21BF73"/>
<path d="M97.7167 33.8036C98.76 33.0012 100.194 32.6 102.02 32.6C103.063 32.6 104.115 32.7395 105.176 33.0186V32.6785C105.176 31.9633 104.941 31.44 104.472 31.1085C104.02 30.7771 103.289 30.6114 102.281 30.6114C101.046 30.6114 99.638 30.9515 98.0558 31.6318L97.0387 28.6752C98.9512 27.803 100.89 27.3669 102.855 27.3669C104.854 27.3669 106.393 27.8379 107.471 28.7798C108.549 29.7218 109.088 31.0475 109.088 32.757V41.1561H105.411L105.332 39.5077C104.115 40.7287 102.585 41.3392 100.742 41.3392C99.3511 41.3392 98.2297 40.9555 97.3777 40.188C96.5431 39.403 96.1258 38.3825 96.1258 37.1266C96.1258 35.7137 96.6561 34.606 97.7167 33.8036ZM100.22 36.9173C100.22 37.8941 100.829 38.3825 102.046 38.3825C102.915 38.3825 103.646 38.1383 104.237 37.6499C104.828 37.144 105.158 36.5161 105.228 35.766C104.202 35.4694 103.315 35.3212 102.568 35.3212C101.003 35.3212 100.22 35.8532 100.22 36.9173Z" fill="#21BF73"/>
<path d="M110.688 31.03V27.6547H112.905L112.983 24.4102H117.078V27.6547H120.416V31.03H117.078V35.7922C117.078 36.9609 117.582 37.5452 118.591 37.5452C119.077 37.5452 119.616 37.4231 120.208 37.1789L121.12 40.6851C120.077 41.1561 118.964 41.3916 117.782 41.3916C116.148 41.3916 114.913 40.9555 114.079 40.0833C113.244 39.1937 112.827 37.9028 112.827 36.2108V31.03H110.688Z" fill="#21BF73"/>
<path d="M124.039 29.277C125.412 27.9687 127.221 27.3145 129.464 27.3145C131.689 27.3145 133.489 27.9687 134.862 29.277C136.253 30.5852 136.949 32.2947 136.949 34.4054C136.949 36.5161 136.253 38.2255 134.862 39.5338C133.489 40.8421 131.689 41.4962 129.464 41.4962C127.221 41.4962 125.404 40.8421 124.013 39.5338C122.639 38.2255 121.952 36.5161 121.952 34.4054C121.952 32.2947 122.648 30.5852 124.039 29.277ZM127.064 36.8911C127.673 37.5191 128.473 37.8331 129.464 37.8331C130.437 37.8331 131.228 37.5191 131.837 36.8911C132.446 36.2631 132.75 35.4346 132.75 34.4054C132.75 33.3937 132.446 32.5738 131.837 31.9458C131.228 31.3004 130.437 30.9777 129.464 30.9777C128.49 30.9777 127.69 31.3004 127.064 31.9458C126.456 32.5738 126.151 33.3937 126.151 34.4054C126.151 35.4346 126.456 36.2631 127.064 36.8911Z" fill="#21BF73"/>
<path d="M143.38 27.6547L143.432 29.4863C144.458 28.1431 145.831 27.4715 147.553 27.4715C148.213 27.4715 148.848 27.5762 149.457 27.7855L148.518 31.7365C147.944 31.5621 147.387 31.4749 146.848 31.4749C144.779 31.4749 143.745 32.7395 143.745 35.2688V41.1561H139.494V27.6547H143.38Z" fill="#21BF73"/>
<path fill-rule="evenodd" clip-rule="evenodd" d="M67.7298 1.98582C66.8117 1.12283 65.9434 0.306769 64.3877 0.0603363C62.4819 -0.241571 61.1677 0.642852 59.8535 1.52727C59.1334 2.01187 58.4133 2.49647 57.5959 2.7859C56.368 3.22067 55.2722 3.55668 54.2565 3.86808C50.7749 4.93554 48.2362 5.71394 44.5556 9.19099C40.6031 12.9249 38.4978 17.9482 37.6086 20.5501C37.3813 21.2152 38.074 21.7928 38.7248 21.5322C39.8048 21.0996 41.2271 20.6384 42.3822 20.6384C43.5646 20.6384 45.1414 21.8219 46.5564 22.8839C47.7423 23.774 48.8145 24.5788 49.4457 24.5301C49.9938 24.4878 50.6074 24.2879 51.2418 24.0813C52.651 23.6222 54.1626 23.1298 55.2867 24.2576C55.9393 24.7755 56.2184 25.7342 56.4725 26.6075C56.7584 27.5896 57.0128 28.4637 57.7317 28.4822C58.4972 28.4822 58.6571 27.7957 58.8535 26.9523C59.0754 25.9997 59.3439 24.847 60.5843 24.2576C62.0606 23.556 62.8258 23.9691 63.7188 24.4513C64.387 24.8121 65.1267 25.2115 66.2895 25.2115C68.2787 25.2115 69.064 24.6999 69.8221 24.2061C70.5651 23.722 71.2821 23.255 73.0813 23.3036C75.0476 23.3567 76.1024 24.0911 77.1243 24.8025C78.1188 25.4948 79.0821 26.1655 80.824 26.1655C82.32 26.181 83.3536 25.4364 84.4399 24.6539C85.6222 23.8021 86.867 22.9054 88.8384 22.8948C91.3916 22.881 92.4014 23.2743 93.9282 23.869C94.6341 24.144 95.4505 24.462 96.5811 24.8027C97.4209 25.0558 98.1453 24.8035 99.031 24.495C99.8841 24.1979 100.887 23.8487 102.286 23.8487C104.161 23.8487 104.515 23.2178 104.958 22.426C105.189 22.0133 105.445 21.5567 105.954 21.1231C109.434 18.156 110.904 10.75 111.094 9.71954C111.109 9.63754 111.134 9.56401 111.17 9.4888C111.527 8.74013 113.446 4.41385 110.844 2.92218C108.177 1.47311 106.469 3.21854 104.854 4.86878C104.495 5.2361 104.14 5.5987 103.78 5.92031C102.956 6.65693 97.2777 6.98678 96.8752 7.00929C96.8712 7.00952 96.8682 7.00971 96.8656 7.00987C96.858 7.01036 96.855 7.01055 96.8427 7.01046C96.3237 7.00657 75.8562 6.83272 69.8212 3.60357C68.9617 3.14367 68.3349 2.55455 67.7298 1.98582ZM61.9039 4.24868C62.8378 4.22193 64.4073 4.26016 65.4271 4.72953C66.7604 5.34316 67.9557 7.06251 68.5611 8.05486C68.7671 8.39254 68.5324 8.80173 68.1378 8.79445C67.0129 8.77369 65.025 8.62193 63.8529 7.8616C62.8598 7.21739 61.9689 5.82277 61.4927 4.98C61.3064 4.65033 61.5263 4.25949 61.9039 4.24868Z" fill="#21BF73"/>
</svg>
